X: 21281
M: 3/4
L: 1/8
K: G
d2d2d2 | ^de=dcBA | GFEDEF | G4 |] !p!A2 |\
d2ABA2 | d2ABA2 | e2d2e2 | f4d2 |\
g2B2e2 | f2A2d2 |
e2A2^c2 | d4 |] !f!D2 |\
d2d2d2 | ^de=dcBA | GFEDEF | G4 |] !ff!c2 |\
d2=f3d | c2e3c | B2d3B | c4 |] G2 |\
"^stop"z6 | z2z2!p!c2 |\
d2=f3d | c2e3c | B2d3B | c4 |] !f!D2 |\
d2d2d2 | ^de=dcBA | GFEDEF | G4 |]


